P3
16 8
255
255 244 214   255 233 193   245 215 170   229 193 141   205 169 119   179 145 103   152 124 92   122 104 89   92 92 104   75 96 131   69 115 165   76 139 193   98 166 211   134 193 223   182 220 233   225 241 242
255 238 204   249 223 180   233 202 152   210 177 124   184 152 103   158 130 91   132 112 88   107 100 94   88 99 116   78 113 145   81 136 180   97 162 204   126 187 216   166 210 223   210 231 229   241 245 239
239 216 182   224 195 153   201 170 126   175 145 104   149 122 90   126 104 87   106 96 96   92 101 116   88 116 145   96 139 177   114 165 199   143 188 211   181 208 217   219 223 223   243 231 229   252 236 235
197 165 130   172 140 107   147 118 92   124 101 88   108 96 97   102 107 118   108 129 147   125 153 173   149 177 193   178 197 205   206 211 213   228 220 220   237 223 225   236 214 223   224 194 210   204 167 187
102 84 91   95 97 114   102 123 145   122 150 172   150 175 191   181 194 201   209 207 207   230 214 211   237 213 214   230 199 205   210 176 191   182 148 171   151 123 150   122 105 134   101 99 128   92 102 131
84 96 118   92 122 148   111 149 175   139 174 194   173 195 204   206 209 210   230 214 214   237 207 211   224 184 196   197 154 174   163 126 150   129 107 131   104 99 122   92 104 125   94 118 139   107 138 162
94 123 150   111 150 178   137 175 196   170 196 205   204 210 213   229 213 214   235 200 207   216 171 188   184 138 161   148 112 137   117 98 124   98 100 125   96 117 139   110 141 162   133 166 184   161 189 201
139 177 197   171 196 206   205 210 214   230 213 214   234 197 205   212 165 184   176 129 157   139 105 136   111 97 128   97 107 133   103 129 148   126 155 171   158 181 191   193 204 207   223 220 221   244 232 229
